Resources/SVGs/Illus_Fall.svg

<?xml version="1.0" encoding="UTF-8" standalone="no"?>
<!-- Created with Inkscape (http://www.inkscape.org/) -->

<svg
   xmlns:dc="http://purl.org/dc/elements/1.1/"
   xmlns:cc="http://creativecommons.org/ns#"
   xmlns:rdf="http://www.w3.org/1999/02/22-rdf-syntax-ns#"
   xmlns:svg="http://www.w3.org/2000/svg"
   xmlns="http://www.w3.org/2000/svg"
   xmlns:sodipodi="http://sodipodi.sourceforge.net/DTD/sodipodi-0.dtd"
   xmlns:inkscape="http://www.inkscape.org/namespaces/inkscape"
   width="183.24597mm"
   height="198.10236mm"
   viewBox="0 0 183.24597 198.10236"
   version="1.1"
   id="svg8"
   inkscape:version="0.92.4 (5da689c313, 2019-01-14)"
   sodipodi:docname="Illus_Fall.svg">
  <defs
     id="defs2" />
  <sodipodi:namedview
     id="base"
     pagecolor="#ffffff"
     bordercolor="#666666"
     borderopacity="1.0"
     inkscape:pageopacity="0.0"
     inkscape:pageshadow="2"
     inkscape:zoom="0.35"
     inkscape:cx="-126.56553"
     inkscape:cy="411.50951"
     inkscape:document-units="mm"
     inkscape:current-layer="layer1"
     showgrid="false"
     inkscape:window-width="2560"
     inkscape:window-height="1377"
     inkscape:window-x="-8"
     inkscape:window-y="-8"
     inkscape:window-maximized="1" />
  <metadata
     id="metadata5">
    <rdf:RDF>
      <cc:Work
         rdf:about="">
        <dc:format>image/svg+xml</dc:format>
        <dc:type
           rdf:resource="http://purl.org/dc/dcmitype/StillImage" />
        <dc:title></dc:title>
      </cc:Work>
    </rdf:RDF>
  </metadata>
  <g
     inkscape:label="Layer 1"
     inkscape:groupmode="layer"
     id="layer1"
     transform="translate(-16.478202,-59.609538)">
    <g
       id="g4777"
       transform="matrix(0.26458333,0,0,0.26458333,16.4724,59.609539)">
      <circle
         id="circle4695"
         r="75.365318"
         cy="252.48956"
         cx="485.38885"
         style="fill:#ff6584" />
      <path
         id="path4697"
         transform="translate(-253.69742,-75.63348)"
         d="m 945.81769,384.31483 c 0.16641,-0.0303 0.29119,-0.14636 0.48489,-0.11681 a 6.42649,6.42649 0 0 0 -0.33042,-0.95413 c -0.23989,0.327 -0.48462,0.66057 -0.69891,0.9527 z"
         inkscape:connector-curvature="0"
         style="fill:#ffffff" />
      <path
         id="path4699"
         transform="translate(-253.69742,-75.63348)"
         d="m 440.33,506.49838 a 175.14542,175.14542 0 0 0 8.18151,48.41582 c 0.114,0.36373 0.23344,0.722 0.35286,1.0858 h 30.53273 c -0.0326,-0.32576 -0.0652,-0.68949 -0.0978,-1.0858 -2.03588,-23.40445 -13.77337,-165.85054 0.26061,-190.21049 -1.22696,1.97616 -41.59704,67.42819 -39.22996,141.79467 z"
         inkscape:connector-curvature="0"
         style="fill:#e6e6e6" />
      <path
         id="path4701"
         transform="translate(-253.69742,-75.63348)"
         d="m 442.621,554.9142 c 0.25518,0.36373 0.5212,0.72747 0.79265,1.0858 h 22.90495 c -0.17373,-0.30946 -0.3746,-0.67319 -0.608,-1.0858 -3.784,-6.82969 -14.984,-27.24816 -25.38058,-48.41582 -11.17289,-22.74753 -21.42285,-46.35825 -20.55962,-54.90349 -0.26608,1.92729 -7.99697,60.67992 22.8506,103.31931 z"
         inkscape:connector-curvature="0"
         style="fill:#e6e6e6" />
      <path
         id="path4703"
         transform="translate(-253.69742,-75.63348)"
         d="m 680.6358,558.82949 a 152.69422,152.69422 0 0 1 -7.13276,42.20965 c -0.0994,0.3171 -0.20352,0.62947 -0.30763,0.94661 h -26.6189 c 0.0284,-0.284 0.0568,-0.60111 0.0852,-0.94661 1.77491,-20.40436 12.00784,-144.591 -0.2272,-165.82839 1.06968,1.72285 36.26489,58.78492 34.20127,123.61874 z"
         inkscape:connector-curvature="0"
         style="fill:#e6e6e6" />
      <path
         id="path4705"
         transform="translate(-253.69742,-75.63348)"
         d="m 678.63846,601.03914 c -0.22247,0.3171 -0.45439,0.63421 -0.69105,0.94661 h -19.96888 c 0.15146,-0.26979 0.32658,-0.5869 0.5301,-0.94661 3.299,-5.95423 13.0633,-23.75536 22.12717,-42.20965 9.7407,-19.83164 18.67677,-40.41582 17.92419,-47.8657 0.23192,1.68021 6.97183,52.90168 -19.92153,90.07535 z"
         inkscape:connector-curvature="0"
         style="fill:#e6e6e6" />
      <path
         id="path4707"
         transform="translate(-253.69742,-75.63348)"
         d="m 376.281,136.80622 12.41349,-9.92842 c -9.64348,-1.06393 -13.60581,4.19542 -15.22744,8.35824 -7.53388,-3.12835 -15.73541,0.97151 -15.73541,0.97151 l 24.83709,9.01674 a 18.79476,18.79476 0 0 0 -6.28773,-8.41807 z"
         inkscape:connector-curvature="0"
         style="fill:#3f3d56" />
      <path
         id="path4709"
         transform="translate(-253.69742,-75.63348)"
         d="m 750.16515,85.70094 12.41349,-9.92842 c -9.64349,-1.06394 -13.60582,4.19541 -15.22744,8.35823 -7.53388,-3.12835 -15.73541,0.97151 -15.73541,0.97151 l 24.83709,9.01674 a 18.79472,18.79472 0 0 0 -6.28773,-8.41806 z"
         inkscape:connector-curvature="0"
         style="fill:#3f3d56" />
      <path
         id="path4711"
         transform="translate(-253.69742,-75.63348)"
         d="m 932.807,478.32294 q 0,12.33973 -0.8598,24.4778 A 344.11238,344.11238 0 0 1 868.0247,679.9411 q -7.32429,10.22205 -15.38088,19.87093 A 347.51435,347.51435 0 0 1 806.49047,745.6575 L 732.91905,702.487 688.93118,599.82028 c 0,0 65.63153,-132.8871 243.75906,-130.47752 q 0.11147,4.47416 0.11676,8.98018 z"
         inkscape:connector-curvature="0"
         style="fill:#3f3d56" />
      <path
         id="path4713"
         transform="translate(-253.69742,-75.63348)"
         d="m 931.94719,502.80074 a 346.07669,346.07669 0 0 1 -129.28867,245.9669 l -68.34893,-40.10281 -39.00951,-91.05407 c 0,0 63.21132,-127.98306 236.64711,-114.81002 z"
         inkscape:connector-curvature="0"
         style="fill:#58b2e4" />
      <path
         id="path4715"
         transform="translate(-253.69742,-75.63348)"
         d="m 868.02469,679.9411 q -7.32429,10.22205 -15.38088,19.87093 a 346.16927,346.16927 0 0 1 -133.98047,98.5269 q -15.79485,6.51225 -32.33281,11.48526 A 378.83832,378.83832 0 0 1 446.085,794.57068 347.29161,347.29161 0 0 1 274.1141,626.82443 q -7.165,-15.0624 -12.88642,-30.88915 c 66.52315,-48.73267 197.60579,-118.51464 340.4708,-50.70708 q 59.27852,28.13469 105.86172,51.29089 c 78.80458,39.06257 131.25245,67.22376 160.46449,83.42201 z"
         inkscape:connector-curvature="0"
         style="fill:#3f3d56" />
      <path
         id="path4717"
         transform="translate(-253.69742,-75.63348)"
         d="M 852.64381,699.812 A 346.27989,346.27989 0 0 1 274.1141,626.8244 c 55.558,-43.93475 183.70032,-122.88789 324.32562,-56.15244 q 54.24711,25.74625 96.86036,46.93877 c 82.81692,41.04764 133.83184,68.94339 157.34373,82.20127 z"
         inkscape:connector-curvature="0"
         style="fill:#58b2e4" />
      <path
         id="path4719"
         transform="translate(-253.69742,-75.63348)"
         d="M 754.584,781.02614 A 349.545,349.545 0 0 1 718.66338,798.33893 345.06471,345.06471 0 0 1 586.7634,824.36652 346.36523,346.36523 0 0 1 310.54422,686.79824 c 82.64708,-8.71474 311.09951,-20.46537 444.03978,94.2279 z"
         inkscape:connector-curvature="0"
         style="fill:#3f3d56" />
      <path
         id="path4721"
         transform="translate(-253.69742,-75.63348)"
         d="M 718.66334,798.33893 A 346.4182,346.4182 0 0 1 334.70359,715.41585 c 30.06116,-4.41574 266.07141,-34.74233 383.95975,82.92308 z"
         inkscape:connector-curvature="0"
         style="fill:#58b2e4" />
      <path
         id="path4723"
         transform="translate(-253.69742,-75.63348)"
         d="m 874.76508,286.42794 v 0.0106 C 627.673,103.74667 344.57538,232.33479 342.38872,233.322 v -0.0106 A 344.99584,344.99584 0 0 1 586.7634,132.2794 c 120.12812,-2e-5 225.95797,61.21571 288.00168,154.14857 z"
         inkscape:connector-curvature="0"
         style="fill:#e6e6e6" />
      <ellipse
         id="ellipse4725"
         transform="rotate(-10.22048,-215.3595,1711.2342)"
         ry="156.91896"
         rx="76.90583"
         cy="330.60217"
         cx="334.36386"
         style="fill:#3f3d56" />
      <path
         id="path4727"
         transform="translate(-253.69742,-75.63348)"
         d="M 372.94937,584.6377 C 370.4713,397.30114 307.79119,221.49731 307.15861,219.74483 l -5.71631,2.0619 c 0.62954,1.744 62.96568,176.62681 65.43083,362.91333 z"
         inkscape:connector-curvature="0"
         style="fill:#58b2e4" />
      <rect
         id="rect4729"
         transform="rotate(-72.07888,119.50406,460.95771)"
         height="78.866951"
         width="6.0778799"
         y="285.00119"
         x="295.28882"
         style="fill:#58b2e4" />
      <rect
         id="rect4731"
         transform="rotate(-38.378211,138.36562,656.4255)"
         height="6.0778799"
         width="78.869659"
         y="326.71939"
         x="334.43768"
         style="fill:#58b2e4" />
      <ellipse
         id="ellipse4733"
         ry="169.80086"
         rx="83.219231"
         cy="212.58899"
         cx="309.49948"
         style="fill:#3f3d56" />
      <path
         id="path4735"
         transform="translate(-253.69742,-75.63348)"
         d="M 555.512,566.15909 C 588.84218,366.1844 555.84756,166.93223 555.51,164.94452 l -6.48332,1.09822 c 0.33556,1.97807 33.14072,200.18341 -0.002,399.0374 z"
         inkscape:connector-curvature="0"
         style="fill:#58b2e4" />
      <rect
         id="rect4737"
         transform="rotate(-61.8584,336.0426,448.62261)"
         height="85.341362"
         width="6.5768299"
         y="232.06483"
         x="522.71704"
         style="fill:#58b2e4" />
      <rect
         id="rect4739"
         transform="rotate(-28.15796,327.79499,762.88402)"
         height="6.5768299"
         width="85.344292"
         y="291.62119"
         x="562.76044"
         style="fill:#58b2e4" />
      <path
         id="path4741"
         transform="translate(-253.69742,-75.63348)"
         d="M 924.67605,403.40342 A 634.4074,634.4074 0 0 0 829.30173,359.79766 C 647.16183,293.8902 466.55041,319.29149 395.85564,413.61489 450.87234,298.06182 647.18308,261.72726 845.28764,333.4092 a 646.92582,646.92582 0 0 1 67.58469,28.87236 343.54164,343.54164 0 0 1 11.80372,41.12186 z"
         inkscape:connector-curvature="0"
         style="fill:#e6e6e6" />
      <path
         id="path4743"
         transform="translate(-253.69742,-75.63348)"
         d="m 678.6841,217.456 12.41349,-9.92842 c -9.64349,-1.06393 -13.60582,4.19541 -15.22744,8.35824 -7.53389,-3.12835 -15.73541,0.9715 -15.73541,0.9715 l 24.83709,9.01675 A 18.79478,18.79478 0 0 0 678.6841,217.456 Z"
         inkscape:connector-curvature="0"
         style="fill:#3f3d56" />
    </g>
  </g>
</svg>

<svg id="a1f75fc3-9e42-4fc1-bde4-b430080f0daf" data-name="Layer 1" xmlns="http://www.w3.org/2000/svg" width="692.60517" height="748.73305" viewBox="0 0 692.60517 748.73305"><circle cx="485.38885" cy="252.48956" r="75.36532" fill="#ff6584"/><path d="M945.81769,384.31483c.16641-.03026.29119-.14636.48489-.11681a6.42649,6.42649,0,0,0-.33042-.95413c-.23989.327-.48462.66057-.69891.9527Z" transform="translate(-253.69742 -75.63348)" fill="#fff"/><path d="M440.33,506.49838a175.14542,175.14542,0,0,0,8.18151,48.41582c.114.36373.23344.722.35286,1.0858h30.53273c-.03257-.32576-.06518-.68949-.09775-1.0858-2.03588-23.40445-13.77337-165.85054.26061-190.21049C478.333,366.67987,437.96292,432.1319,440.33,506.49838Z" transform="translate(-253.69742 -75.63348)" fill="#e6e6e6"/><path d="M442.621,554.9142c.25518.36373.5212.72747.79265,1.0858h22.90495c-.17373-.30946-.3746-.67319-.608-1.0858-3.784-6.82969-14.984-27.24816-25.38058-48.41582-11.17289-22.74753-21.42285-46.35825-20.55962-54.90349C419.50432,453.52218,411.77343,512.27481,442.621,554.9142Z" transform="translate(-253.69742 -75.63348)" fill="#e6e6e6"/><path d="M680.6358,558.82949a152.69422,152.69422,0,0,1-7.13276,42.20965c-.09938.3171-.20352.62947-.30763.94661h-26.6189c.0284-.284.05683-.60111.08522-.94661,1.77491-20.40436,12.00784-144.591-.2272-165.82839C647.50421,436.9336,682.69942,493.99567,680.6358,558.82949Z" transform="translate(-253.69742 -75.63348)" fill="#e6e6e6"/><path d="M678.63846,601.03914c-.22247.3171-.45439.63421-.69105.94661H657.97853c.15146-.26979.32658-.5869.5301-.94661,3.299-5.95423,13.0633-23.75536,22.12717-42.20965,9.7407-19.83164,18.67677-40.41582,17.92419-47.8657C698.79191,512.644,705.53182,563.86547,678.63846,601.03914Z" transform="translate(-253.69742 -75.63348)" fill="#e6e6e6"/><path d="M376.281,136.80622l12.41349-9.92842c-9.64348-1.06393-13.60581,4.19542-15.22744,8.35824-7.53388-3.12835-15.73541.97151-15.73541.97151l24.83709,9.01674A18.79476,18.79476,0,0,0,376.281,136.80622Z" transform="translate(-253.69742 -75.63348)" fill="#3f3d56"/><path d="M750.16515,85.70094l12.41349-9.92842c-9.64349-1.06394-13.60582,4.19541-15.22744,8.35823-7.53388-3.12835-15.73541.97151-15.73541.97151L756.45288,94.119A18.79472,18.79472,0,0,0,750.16515,85.70094Z" transform="translate(-253.69742 -75.63348)" fill="#3f3d56"/><path d="M932.807,478.32294q0,12.33973-.8598,24.4778a344.11238,344.11238,0,0,1-63.9225,177.14036q-7.32429,10.22205-15.38088,19.87093a347.51435,347.51435,0,0,1-46.15335,45.84547L732.91905,702.487,688.93118,599.82028s65.63153-132.8871,243.75906-130.47752Q932.80171,473.81692,932.807,478.32294Z" transform="translate(-253.69742 -75.63348)" fill="#3f3d56"/><path d="M931.94719,502.80074a346.07669,346.07669,0,0,1-129.28867,245.9669l-68.34893-40.10281-39.00951-91.05407S758.5114,489.6277,931.94719,502.80074Z" transform="translate(-253.69742 -75.63348)" fill="#58b2e4"/><path d="M868.02469,679.9411q-7.32429,10.22205-15.38088,19.87093a346.16927,346.16927,0,0,1-133.98047,98.5269q-15.79485,6.51225-32.33281,11.48526A378.83832,378.83832,0,0,1,446.085,794.57068,347.29161,347.29161,0,0,1,274.1141,626.82443q-7.165-15.0624-12.88642-30.88915c66.52315-48.73267,197.60579-118.51464,340.4708-50.70708Q660.977,573.36289,707.5602,596.51909C786.36478,635.58166,838.81265,663.74285,868.02469,679.9411Z" transform="translate(-253.69742 -75.63348)" fill="#3f3d56"/><path d="M852.64381,699.812a346.27989,346.27989,0,0,1-578.52971-72.9876c55.558-43.93475,183.70032-122.88789,324.32562-56.15244q54.24711,25.74625,96.86036,46.93877C778.117,658.65837,829.13192,686.55412,852.64381,699.812Z" transform="translate(-253.69742 -75.63348)" fill="#58b2e4"/><path d="M754.584,781.02614a349.545,349.545,0,0,1-35.92062,17.31279A345.06471,345.06471,0,0,1,586.7634,824.36652,346.36523,346.36523,0,0,1,310.54422,686.79824C393.1913,678.0835,621.64373,666.33287,754.584,781.02614Z" transform="translate(-253.69742 -75.63348)" fill="#3f3d56"/><path d="M718.66334,798.33893a346.4182,346.4182,0,0,1-383.95975-82.92308C364.76475,711.00011,600.775,680.67352,718.66334,798.33893Z" transform="translate(-253.69742 -75.63348)" fill="#58b2e4"/><path d="M874.76508,286.42794v.01062C627.673,103.74667,344.57538,232.33479,342.38872,233.322v-.01063a344.99584,344.99584,0,0,1,244.37468-101.032C706.89152,132.27935,812.72137,193.49508,874.76508,286.42794Z" transform="translate(-253.69742 -75.63348)" fill="#e6e6e6"/><ellipse cx="334.36385" cy="330.60218" rx="76.90583" ry="156.91896" transform="translate(-307.05272 -11.0592) rotate(-10.22048)" fill="#3f3d56"/><path d="M372.94937,584.6377c-2.47807-187.33656-65.15818-363.14039-65.79076-364.89287l-5.71631,2.0619c.62954,1.744,62.96568,176.62681,65.43083,362.91333Z" transform="translate(-253.69742 -75.63348)" fill="#58b2e4"/><rect x="295.28883" y="285.00119" width="6.07788" height="78.86695" transform="translate(-355.86074 432.82347) rotate(-72.07888)" fill="#58b2e4"/><rect x="334.43768" y="326.71939" width="78.86966" height="6.07788" transform="matrix(0.78393, -0.62085, 0.62085, 0.78393, -377.64511, 227.73815)" fill="#58b2e4"/><ellipse cx="309.49949" cy="212.58899" rx="83.21923" ry="169.80086" fill="#3f3d56"/><path d="M555.512,566.15909c33.33018-199.97469.33556-399.22686-.00161-401.21457l-6.48332,1.09822c.33556,1.97807,33.14072,200.18341-.00161,399.0374Z" transform="translate(-253.69742 -75.63348)" fill="#58b2e4"/><rect x="522.71705" y="232.06484" width="6.57683" height="85.34136" transform="translate(-218.04118 533.34596) rotate(-61.8584)" fill="#58b2e4"/><rect x="562.76044" y="291.62119" width="85.34429" height="6.57683" transform="translate(-321.21346 244.97513) rotate(-28.15796)" fill="#58b2e4"/><path d="M924.67605,403.40342a634.4074,634.4074,0,0,0-95.37432-43.60576c-182.1399-65.90746-362.75132-40.50617-433.44609,53.81723,55.0167-115.55307,251.32744-151.88763,449.432-80.20569a646.92582,646.92582,0,0,1,67.58469,28.87236A343.54164,343.54164,0,0,1,924.67605,403.40342Z" transform="translate(-253.69742 -75.63348)" fill="#e6e6e6"/><path d="M678.6841,217.456l12.41349-9.92842c-9.64349-1.06393-13.60582,4.19541-15.22744,8.35824-7.53389-3.12835-15.73541.9715-15.73541.9715l24.83709,9.01675A18.79478,18.79478,0,0,0,678.6841,217.456Z" transform="translate(-253.69742 -75.63348)" fill="#3f3d56"/></svg>
